icons/outline/replace-user.svg

<svg
  xmlns="http://www.w3.org/2000/svg"
  width="24"
  height="24"
  viewBox="0 0 24 24"
  fill="none"
  stroke="currentColor"
  stroke-width="2"
  stroke-linecap="round"
  stroke-linejoin="round"
>
  <path d="M20.9999 11V8C20.9999 7.46957 20.7892 6.96086 20.4141 6.58579C20.039 6.21071 19.5303 6 18.9999 6H12.9999M12.9999 6L15.9999 9M12.9999 6L15.9999 3"/>
  <path d="M3 13.0127V16.0127C3 16.5431 3.21071 17.0518 3.58579 17.4269C3.96086 17.802 4.46957 18.0127 5 18.0127H11M11 18.0127L8 15.0127M11 18.0127L8 21.0127"/>
  <path d="M16.0001 16.502C16.0001 17.0324 16.2108 17.5411 16.5859 17.9162C16.961 18.2912 17.4697 18.502 18.0001 18.502C18.5305 18.502 19.0392 18.2912 19.4143 17.9162C19.7894 17.5411 20.0001 17.0324 20.0001 16.502C20.0001 15.9715 19.7894 15.4628 19.4143 15.0877C19.0392 14.7127 18.5305 14.502 18.0001 14.502C17.4697 14.502 16.961 14.7127 16.5859 15.0877C16.2108 15.4628 16.0001 15.9715 16.0001 16.502Z"/>
  <path d="M4.0002 4.50195C4.0002 5.03239 4.21091 5.54109 4.58599 5.91617C4.96106 6.29124 5.46977 6.50195 6.0002 6.50195C6.53063 6.50195 7.03934 6.29124 7.41441 5.91617C7.78948 5.54109 8.0002 5.03239 8.0002 4.50195C8.0002 3.97152 7.78948 3.46281 7.41441 3.08774C7.03934 2.71267 6.53063 2.50195 6.0002 2.50195C5.46977 2.50195 4.96106 2.71267 4.58599 3.08774C4.21091 3.46281 4.0002 3.97152 4.0002 4.50195Z"/>
  <path d="M20.9999 21.499C20.9999 20.9686 20.7892 20.4599 20.4141 20.0848C20.039 19.7097 19.5303 19.499 18.9999 19.499H16.9999C16.4695 19.499 15.9608 19.7097 15.5857 20.0848C15.2106 20.4599 14.9999 20.9686 14.9999 21.499"/>
  <path d="M9 9.49902C9 8.96859 8.78929 8.45988 8.41421 8.08481C8.03914 7.70974 7.53043 7.49902 7 7.49902H5C4.46957 7.49902 3.96086 7.70974 3.58579 8.08481C3.21071 8.45988 3 8.96859 3 9.49902"/>
</svg>

<!--
-->
<svg
  xmlns="http://www.w3.org/2000/svg"
  width="24"
  height="24"
  viewBox="0 0 24 24"
  fill="none"
  stroke="currentColor"
  stroke-width="2"
  stroke-linecap="round"
  stroke-linejoin="round"
>
  <path d="M21 11v-3c0 -.53 -.211 -1.039 -.586 -1.414c-.375 -.375 -.884 -.586 -1.414 -.586h-6m0 0l3 3m-3 -3l3 -3" />
  <path d="M3 13.013v3c0 .53 .211 1.039 .586 1.414c.375 .375 .884 .586 1.414 .586h6m0 0l-3 -3m3 3l-3 3" />
  <path d="M16 16.502c0 .53 .211 1.039 .586 1.414c.375 .375 .884 .586 1.414 .586c.53 0 1.039 -.211 1.414 -.586c.375 -.375 .586 -.884 .586 -1.414c0 -.53 -.211 -1.039 -.586 -1.414c-.375 -.375 -.884 -.586 -1.414 -.586c-.53 0 -1.039 .211 -1.414 .586c-.375 .375 -.586 .884 -.586 1.414z" />
  <path d="M4 4.502c0 .53 .211 1.039 .586 1.414c.375 .375 .884 .586 1.414 .586c.53 0 1.039 -.211 1.414 -.586c.375 -.375 .586 -.884 .586 -1.414c0 -.53 -.211 -1.039 -.586 -1.414c-.375 -.375 -.884 -.586 -1.414 -.586c-.53 0 -1.039 .211 -1.414 .586c-.375 .375 -.586 .884 -.586 1.414z" />
  <path d="M21 21.499c0 -.53 -.211 -1.039 -.586 -1.414c-.375 -.375 -.884 -.586 -1.414 -.586h-2c-.53 0 -1.039 .211 -1.414 .586c-.375 .375 -.586 .884 -.586 1.414" />
  <path d="M9 9.499c0 -.53 -.211 -1.039 -.586 -1.414c-.375 -.375 -.884 -.586 -1.414 -.586h-2c-.53 0 -1.039 .211 -1.414 .586c-.375 .375 -.586 .884 -.586 1.414" />
</svg>
